pic/github-light.svg

<svg xmlns="http://www.w3.org/2000/svg" width="105" height="32" viewBox="0 0 105 32">
  <g fill="none" fill-rule="evenodd">
    <path fill="#161514" d="M16.288,2.66453526e-14 C7.294,2.66453526e-14 -2.84217094e-14,7.293 -2.84217094e-14,16.29 C-2.84217094e-14,23.487 4.667,29.592 11.14,31.746 C11.955,31.896 12.252,31.393 12.252,30.961 C12.252,30.575 12.238,29.55 12.23,28.191 C7.699,29.175 6.743,26.007 6.743,26.007 C6.002,24.125 4.934,23.624 4.934,23.624 C3.455,22.614 5.046,22.634 5.046,22.634 C6.681,22.749 7.541,24.313 7.541,24.313 C8.994,26.802 11.354,26.083 12.282,25.666 C12.43,24.614 12.851,23.896 13.316,23.489 C9.699,23.078 5.896,21.68 5.896,15.438 C5.896,13.66 6.531,12.205 7.573,11.067 C7.405,10.655 6.846,8.998 7.733,6.756 C7.733,6.756 9.1,6.318 12.212,8.426 C13.511,8.064 14.905,7.884 16.29,7.877 C17.674,7.884 19.067,8.064 20.368,8.426 C23.478,6.318 24.843,6.756 24.843,6.756 C25.732,8.998 25.173,10.655 25.006,11.067 C26.05,12.205 26.68,13.66 26.68,15.438 C26.68,21.696 22.871,23.073 19.243,23.476 C19.827,23.979 20.348,24.973 20.348,26.493 C20.348,28.67 20.328,30.427 20.328,30.961 C20.328,31.397 20.622,31.904 21.448,31.745 C27.916,29.586 32.579,23.485 32.579,16.29 C32.579,7.293 25.285,2.66453526e-14 16.288,2.66453526e-14"/>
    <path fill="#11110F" d="M45.6140084,7 C48.8767297,7 50.168239,7.71792292 50.3799253,7.86797528 C50.4573079,7.92304376 50.4803739,8.00453771 50.4803739,8.07217215 L50.4803739,8.07217215 L49.8523838,10.7141655 C49.8523838,10.858674 49.7009667,11.0205531 49.5370866,10.9708437 C49.0156837,10.8104429 48.196655,10.4779993 46.2950131,10.4779993 C44.0983497,10.4779993 41.758454,11.1240375 41.758454,16.0338172 C41.758454,20.9426729 44.0055277,21.5264357 45.6140084,21.5264357 C46.9775059,21.5264357 47.4706345,21.3593824 47.4706345,21.3593824 L47.4706345,21.3593824 L47.4706345,17.9619531 L45.2743431,17.9619531 C45.1290646,17.9619531 45.0113164,17.8444244 45.0113164,17.7002854 L45.0113164,17.7002854 L45.0113164,14.9657105 C45.0113164,14.821202 45.1290646,14.7042277 45.2743431,14.7042277 L45.2743431,14.7042277 L50.9044905,14.7042277 C51.049769,14.7042277 51.1675172,14.821202 51.1675172,14.9657105 L51.1675172,14.9657105 L51.1675172,23.494487 C51.1675172,23.5434573 51.1591464,23.650268 51.0821358,23.6925857 L51.0821358,23.6925857 L51.0589822,23.7082092 C50.8360163,23.8558424 49.0150896,25 46.1339232,25 C42.4141605,25 38,23.8620414 38,16.2252633 C38,8.58848531 41.8555544,7 45.6140084,7 Z M84.9297998,13.0736094 C85.0743342,13.0736094 85.1915243,13.1916925 85.1915243,13.3369402 L85.1915243,13.3369402 L85.1915243,20.3836725 C85.1915243,21.4868899 85.4924983,21.9982137 86.6266381,21.9982137 C87.7609638,21.9982137 88.5602747,21.4174076 88.5602747,21.4174076 L88.5602747,21.4174076 L88.5602747,13.3369402 C88.5602747,13.1916925 88.6778369,13.0736094 88.8219993,13.0736094 L88.8219993,13.0736094 L91.9677165,13.0736094 C92.112809,13.0736094 92.2301851,13.1916925 92.2301851,13.3369402 L92.2301851,13.3369402 L92.2313012,24.399421 C92.2313012,24.5441143 92.113181,24.6623822 91.9692046,24.6623822 L91.9692046,24.6623822 L89.9380955,24.6714371 C89.8365308,24.6714371 89.7425927,24.5997372 89.7066916,24.5287765 C89.6706045,24.4576309 89.5909896,23.8574215 89.5909896,23.8574215 L89.5909896,23.8574215 L89.5639666,23.8752428 C89.3409269,24.0198959 87.7642432,24.9963041 85.8427665,24.9963041 C83.3135064,24.9963041 81.4749239,24.1944849 81.4749239,20.9171714 L81.4749239,20.9171714 L81.4749239,13.3369402 C81.4749239,13.1916925 81.5930441,13.0736094 81.7370205,13.0736094 L81.7370205,13.0736094 Z M97.3022844,7.65213642 C97.4466328,7.65213642 97.5638229,7.76948032 97.5638229,7.91491284 L97.5638229,7.91491284 L97.5638229,13.4953083 C97.5638229,13.4953083 98.7790657,12.7032832 100.56575,12.7032832 C102.353736,12.7032832 105,13.3670616 105,18.4468513 C105,23.5262715 103.343155,24.982075 100.453954,24.982075 C97.9931479,24.982075 96.6932679,23.7583722 96.6932679,23.7583722 C96.6932679,23.7583722 96.6142111,24.4297271 96.5593363,24.5182432 C96.5037175,24.6073137 96.4285671,24.6581319 96.3292345,24.6581319 L96.3292345,24.6581319 L94.1234563,24.6581319 C93.9785499,24.6581319 93.8611737,24.5398641 93.8611737,24.3944316 L93.8611737,24.3944316 L93.8611737,7.91491284 C93.8611737,7.76948032 93.9785499,7.65213642 94.1230843,7.65213642 L94.1230843,7.65213642 Z M63.1906637,9.74917356 C63.3281295,9.74917356 63.3895148,9.8081227 63.3895148,9.92639057 L63.3895148,9.92639057 L63.3899433,10.3049444 C63.3899956,10.3511203 63.3900516,10.4006293 63.3901109,10.4529585 L63.3909382,11.1834546 C63.3910137,11.2501396 63.3910901,11.3175933 63.3911668,11.3853029 L63.3918491,11.9877518 C63.3919223,12.0523811 63.3919941,12.1157278 63.3920638,12.1772789 L63.3929736,12.9805063 C63.3930224,13.0235905 63.3930491,13.047184 63.3930491,13.047184 L63.3930491,13.047184 L65.7710781,13.047184 C65.9159846,13.047184 66.0333607,13.1643431 66.0333607,13.3097756 L66.0333607,13.3097756 L66.0333607,15.8482845 C66.0333607,15.9940866 65.9159846,16.1116153 65.7710781,16.1116153 L65.7710781,16.1116153 L63.3928631,16.1116153 L63.3928631,16.1116153 L63.392998,19.1622523 C63.3930009,19.2338997 63.3930037,19.3046383 63.3930065,19.3741742 L63.3930491,20.7449438 C63.3930491,21.4432786 63.7887052,21.9828758 64.9568859,21.9828758 C65.3218494,21.9828758 65.6762099,21.9268834 65.8149779,21.9268834 C65.9541179,21.9268834 66.0778186,22.0445968 66.0778186,22.1900294 L66.0778186,22.1900294 L66.0750283,24.4193787 C66.0750283,24.5243414 66.0203396,24.621358 65.9262155,24.6557296 C65.7705201,24.7128308 64.8274188,24.9643348 64.0388968,24.9643348 C62.313598,24.9643348 59.7566216,24.6086073 59.7566216,20.9872082 L59.7566216,20.9872082 L59.7566216,16.1116153 L58.0951264,16.1116153 C57.9502199,16.1116153 57.8330298,15.9940866 57.8330298,15.8482845 L57.8330298,15.8482845 L57.8330298,13.8216537 C57.8330298,13.7020923 57.9135747,13.6019342 58.0227661,13.5705193 C58.1327016,13.5391044 59.7566216,13.1495596 59.7566216,13.1495596 L59.7566216,13.1495596 L59.7566216,9.92454264 C59.7566216,9.80424204 59.8241454,9.74917356 59.9502643,9.74917356 L59.9502643,9.74917356 Z M71.0237989,7.65213642 C71.1688915,7.65213642 71.2853375,7.76948032 71.2853375,7.91491284 L71.2853375,7.91491284 L71.2853375,14.0010882 L76.2268535,14.0010882 L76.2268535,14.0010882 L76.2260001,8.4168882 C76.2259921,8.36485059 76.2259847,8.31621872 76.2259778,8.27130222 L76.2259234,7.91491284 C76.2259234,7.76948032 76.3436716,7.65213642 76.488392,7.65213642 L76.488392,7.65213642 L79.6584773,7.65213642 C79.8039419,7.65213642 79.9200159,7.76948032 79.9200159,7.91491284 L79.9200159,7.91491284 L79.9200159,24.3944316 C79.9196438,24.5398641 79.8035698,24.6581319 79.6582913,24.6581319 L79.6582913,24.6581319 L76.4807654,24.6581319 C76.3356729,24.6581319 76.2181107,24.5398641 76.2181107,24.3944316 L76.2181107,24.3944316 L76.2188915,23.7647819 C76.2189606,23.7090257 76.2190336,23.650187 76.2191101,23.5885227 L76.2198844,22.9641905 C76.219979,22.8878849 76.2200762,22.8095244 76.2201757,22.7293659 L76.2207964,22.2288937 C76.2209035,22.1425707 76.2210121,22.0549634 76.2211221,21.9663288 L76.2217945,21.424248 C76.2219082,21.3325315 76.2220226,21.2403014 76.2221373,21.1478147 L76.2228269,20.5918689 C76.2229416,20.4993829 76.223056,20.407154 76.2231698,20.315439 L76.2238422,19.773372 C76.2239521,19.6847405 76.2240608,19.5971366 76.2241678,19.5108175 L76.2247886,19.0103729 C76.224888,18.9302198 76.2249852,18.8518651 76.2250798,18.7755656 L76.2258542,18.151299 C76.2259307,18.0896432 76.2260036,18.0308133 76.2260728,17.9750663 L76.2268535,17.3456666 L71.2853375,17.3456666 L71.2853375,24.3944316 C71.2853375,24.5398641 71.1688915,24.6581319 71.0237989,24.6581319 L71.0237989,24.6581319 L67.8538997,24.6581319 C67.7097372,24.6581319 67.5919891,24.5398641 67.5919891,24.3944316 L67.5919891,24.3944316 L67.5919891,7.91491284 C67.5919891,7.76948032 67.7097372,7.65213642 67.8538997,7.65213642 L67.8538997,7.65213642 Z M56.39773,13.0486623 C56.5426365,13.0486623 56.6600127,13.1667454 56.6600127,13.3112539 L56.6600127,13.3112539 L56.6600127,24.2349547 C56.6600127,24.503275 56.5833741,24.6557296 56.2708671,24.6557296 L56.2708671,24.6557296 L53.4237057,24.6557296 C53.1638413,24.6557296 52.9629439,24.5603762 52.9629439,24.2401289 L52.9629439,24.2401289 L52.9629439,13.3417449 C52.9629439,13.1972363 53.0925971,13.0486623 53.2375036,13.0486623 L53.2375036,13.0486623 Z M101.344041,18.6443956 C101.344041,15.959715 100.252499,15.6198797 99.1196611,15.7205922 C98.2238078,15.8000534 97.4936949,16.2446667 97.4936949,16.2446667 L97.4936949,16.2446667 L97.4936949,21.4634211 C97.4936949,21.4634211 98.2338527,21.9553416 99.3250228,21.9882348 C100.85147,22.0340636 101.344041,21.4752479 101.344041,18.6443956 Z M54.84245,8.02708252 C55.9715673,8.02708252 56.8865802,8.94347371 56.8865802,10.0775517 C56.8865802,11.2103361 55.9715673,12.1291296 54.84245,12.1291296 C53.7144487,12.1291296 52.7985058,11.2103361 52.7985058,10.0775517 C52.7985058,8.94347371 53.7144487,8.02708252 54.84245,8.02708252 Z"/>
  </g>
</svg>

<svg xmlns="http://www.w3.org/2000/svg" width="105" height="32" viewBox="0 0 105 32"><g fill="none" fill-rule="evenodd"><path fill="#161514" d="M16.288 0C7.294 0 0 7.293 0 16.29c0 7.197 4.667 13.302 11.14 15.456.815.15 1.112-.353 1.112-.785 0-.386-.014-1.411-.022-2.77-4.531.984-5.487-2.184-5.487-2.184-.741-1.882-1.809-2.383-1.809-2.383-1.479-1.01.112-.99.112-.99 1.635.115 2.495 1.679 2.495 1.679 1.453 2.489 3.813 1.77 4.741 1.353.148-1.052.569-1.77 1.034-2.177-3.617-.411-7.42-1.809-7.42-8.051 0-1.778.635-3.233 1.677-4.371-.168-.412-.727-2.069.16-4.311 0 0 1.367-.438 4.479 1.67a15.602 15.602 0 0 1 4.078-.549 15.62 15.62 0 0 1 4.078.549c3.11-2.108 4.475-1.67 4.475-1.67.889 2.242.33 3.899.163 4.311 1.044 1.138 1.674 2.593 1.674 4.371 0 6.258-3.809 7.635-7.437 8.038.584.503 1.105 1.497 1.105 3.017 0 2.177-.02 3.934-.02 4.468 0 .436.294.943 1.12.784 6.468-2.159 11.131-8.26 11.131-15.455C32.579 7.293 25.285 0 16.288 0"/><path fill="#11110F" d="M45.614 7c3.263 0 4.554.718 4.766.868.077.055.1.137.1.204l-.628 2.642c0 .145-.151.307-.315.257-.521-.16-1.34-.493-3.242-.493-2.197 0-4.537.646-4.537 5.556 0 4.909 2.248 5.492 3.856 5.492 1.364 0 1.857-.167 1.857-.167v-3.397h-2.197a.263.263 0 0 1-.263-.262v-2.734c0-.145.118-.262.263-.262h5.63c.146 0 .264.117.264.262v8.528c0 .05-.009.156-.086.199l-.023.015c-.223.148-2.044 1.292-4.925 1.292C42.414 25 38 23.862 38 16.225 38 8.588 41.856 7 45.614 7zm39.316 6.074c.144 0 .262.118.262.263v7.047c0 1.103.3 1.614 1.435 1.614 1.134 0 1.933-.58 1.933-.58v-8.081c0-.145.118-.263.262-.263h3.146c.145 0 .262.118.262.263l.001 11.062a.263.263 0 0 1-.262.263l-2.03.01a.277.277 0 0 1-.232-.143c-.036-.071-.116-.672-.116-.672l-.027.018c-.223.145-1.8 1.121-3.721 1.121-2.53 0-4.368-.802-4.368-4.079v-7.58c0-.145.118-.263.262-.263zm12.372-5.422c.145 0 .262.117.262.263v5.58s1.215-.792 3.002-.792c1.788 0 4.434.664 4.434 5.744s-1.657 6.535-4.546 6.535c-2.46 0-3.76-1.224-3.76-1.224s-.08.672-.135.76c-.055.09-.13.14-.23.14h-2.206a.263.263 0 0 1-.262-.264V7.914c0-.145.118-.262.262-.262zM63.191 9.75c.137 0 .199.06.199.177V11.183l.001.202v.603l.001.19.001.803v.066h2.378c.145 0 .262.117.262.263v2.538a.263.263 0 0 1-.262.264h-2.378v4.632c0 .7.396 1.239 1.564 1.239.365 0 .72-.056.858-.056.14 0 .263.118.263.263l-.003 2.23c0 .104-.055.201-.149.236-.155.057-1.099.308-1.887.308-1.725 0-4.282-.355-4.282-3.977v-4.875h-1.662a.262.262 0 0 1-.262-.264v-2.026c0-.12.08-.22.19-.251.11-.032 1.734-.421 1.734-.421V9.925c0-.12.067-.176.193-.176zm7.833-2.097c.145 0 .261.117.261.263V14h4.942l-.001-5.584v-.502c0-.146.118-.263.262-.263h3.17c.146 0 .262.117.262.263v16.48a.263.263 0 0 1-.262.263h-3.177a.263.263 0 0 1-.263-.264v-.63l.001-.175v-.625l.001-.235v-.5l.001-.263v-.542l.001-.276v-.556l.001-.277v-.542l.001-.262v-.5l.001-.235v-.625l.001-.176v-.63h-4.94v7.05a.262.262 0 0 1-.262.263h-3.17a.263.263 0 0 1-.262-.264V7.914c0-.145.118-.262.262-.262zM56.398 13.05c.145 0 .262.118.262.262v10.924c0 .268-.077.42-.39.42h-2.846c-.26 0-.461-.095-.461-.415V13.342c0-.145.13-.293.275-.293zm44.946 5.595c0-2.684-1.092-3.024-2.224-2.923a4.21 4.21 0 0 0-1.626.524v5.218s.74.492 1.831.525c1.526.046 2.019-.513 2.019-3.344zM54.842 8.027c1.13 0 2.045.916 2.045 2.05a2.048 2.048 0 0 1-2.045 2.052 2.048 2.048 0 0 1-2.043-2.051c0-1.135.915-2.05 2.043-2.05z"/></g></svg>
